X:50
T:Return From Tchernobyle
T:Farewell To Tchernobyl
T:Farewell to Chernobyl
C:Michel Ferry
S:Bernie Waugh
R:Reel
M:4/4
L:1/8
K:D Minor
|:\
"Dm"D2DF ADFA|DFAF G/G/FEC|"Am"A,2A,C EA,CE|A,CEG AGEC|
"Dm"D2DF ADFA|"(Dm7)"DFAD (3EFG A=B|"Am(7)"c2Gc EcGc|1\
fedc dcAF:|2\
fedc dcAc||
"Dm"d2fd gdfd|d/d/dfd efec|"Bb"d2fd gdfd|e/e/efe eABA|
"Gm"d2fd gdfd|d/d/dfd gfeg|"A7"gaa/a/a agg/g/g|gff/f/f eABA|
"Dm"d2fd gdfd|d/d/dfd efec|"Bb"d2fd gdfd|e/e/efe eABA|
"Gm"d2fd Adfd|Bdfd Bdfd|"A7(stop)"cege agfd|gfdc dcAF|]

